X: 583
T: Devojce,devojce
B: incoming
M:9/8
Q: 3/8=100
K:F
V:1 
GABAGFEDC|EFGAFG2c2|GABAGFEDC|EFGAFG2G2|
|:FG/2A/2B2cBAG2|ccc2ABAGF:|
ccc2ABAGF|GABAGA2A2|ccc2ABAGF|GABAcG2G2|
% abcbook-tune_id 63cb1127377ab51afffa9c10
% abcbook-tune_composer_id 
% abcbook-boost 0
% abcbook-difficulty 0
% abcbook-tags balkan dances
% abcbook-tablature 
% abcbook-transpose 
% abcbook-tuning 
% abcbook-lastupdated 1674252583330
% abcbook-soundfonts 
% abcbook-repeats 1


